X: 41155
T: Tripping Down The Stairs
R: reel
M: 4/4
K: Gmajor
|:BG ~G2 BGcG|BGDC B,G,DC|B,G,B,D ECEG|FDEF GBdc|
BG ~G2 dGcG|BGDC B,G,DC|B,G,B,D ECEG|1 FDEF G2GA:|2 FDEF G2ga||
|:bg ~g2 efde|cdBc ABGA|FGEF DECD|B,CA,B, G,A,B,D|
GB ~B2 GBdB|~c2cB AFDC|B,G,B,D ECEG|1 FDEF G2ga:|2 FDEF G2GA||

